src/assets/images/icons/target.svg

<svg width="37" height="35" viewBox="0 0 37 35" fill="none" xmlns="http://www.w3.org/2000/svg">
<path d="M21.4303 34.3063C29.503 34.3063 36.071 28.0594 36.071 20.3815C36.071 12.7036 29.503 6.45679 21.4303 6.45679C20.1915 6.45679 18.9594 6.6046 17.7679 6.89595L16.6766 7.16374L17.2386 9.23852L18.3287 8.97181C19.3367 8.72438 20.3807 8.59906 21.4303 8.59906C28.2608 8.59906 33.8186 13.8851 33.8186 20.3815C33.8186 26.878 28.2608 32.164 21.4303 32.164C14.5998 32.164 9.04199 26.878 9.04199 20.3815C9.04199 19.3822 9.17376 18.3903 9.43278 17.4306L9.71434 16.3937L7.53287 15.8592L7.25244 16.8971C6.94498 18.0304 6.78957 19.2022 6.78957 20.3815C6.78957 28.0594 13.3576 34.3063 21.4303 34.3063Z" fill="#1F3D56"></path>
<path d="M21.4298 28.9507C26.3975 28.9507 30.4395 25.1064 30.4395 20.3816C30.4395 15.6568 26.3975 11.8125 21.4298 11.8125C16.4621 11.8125 12.4201 15.6568 12.4201 20.3816C12.4201 25.1064 16.4621 28.9507 21.4298 28.9507ZM21.4298 13.9548C25.1564 13.9548 28.187 16.8372 28.187 20.3816C28.187 23.926 25.1564 26.8084 21.4298 26.8084C17.7031 26.8084 14.6725 23.926 14.6725 20.3816C14.6725 16.8372 17.7031 13.9548 21.4298 13.9548Z" fill="#1F3D56"></path>
<path d="M6.41943 14.0469L3.24249e-05 7.94139L5.63108 6.87026L2.61397 4.00069C2.17362 3.58187 2.17362 2.90492 2.61397 2.4861C3.05431 2.06729 3.76608 2.06729 4.20643 2.4861L7.22355 5.35567L8.34976 0L14.7692 6.1044L13.6429 11.4601L19.9824 17.4895C20.4239 17.2892 20.9104 17.1681 21.4307 17.1681C23.2934 17.1681 24.8093 18.6099 24.8093 20.3815C24.8093 22.1532 23.2934 23.595 21.4307 23.595C19.5679 23.595 18.0521 22.1532 18.0521 20.3815C18.0521 19.8867 18.1793 19.424 18.3911 19.0051L12.0516 12.9757L6.41943 14.0469ZM20.6705 21.1613C20.7674 21.247 20.8766 21.3199 20.9994 21.3691C20.88 21.3231 20.7707 21.2502 20.6705 21.1613ZM22.254 19.6628C22.3452 19.7571 22.4206 19.8599 22.4702 19.9713C22.4195 19.8556 22.3418 19.7539 22.254 19.6628ZM22.254 21.1003C22.3418 21.0092 22.4184 20.9075 22.4702 20.7918C22.4206 20.9032 22.3452 21.006 22.254 21.1003ZM22.1909 21.1613C22.0907 21.2492 21.9814 21.322 21.862 21.3691C21.9848 21.3209 22.094 21.247 22.1909 21.1613Z" fill="#1F3D56"></path>
</svg>

<svg width="37" height="35" fill="none" xmlns="http://www.w3.org/2000/svg"><path d="M21.43 34.306c8.073 0 14.641-6.247 14.641-13.924 0-7.678-6.568-13.925-14.64-13.925-1.24 0-2.472.148-3.663.439l-1.091.268.562 2.075 1.09-.267a13.026 13.026 0 013.101-.373c6.83 0 12.389 5.286 12.389 11.782 0 6.497-5.558 11.783-12.389 11.783-6.83 0-12.388-5.286-12.388-11.783 0-.999.132-1.99.39-2.95l.282-1.037-2.181-.535-.28 1.038a13.308 13.308 0 00-.463 3.485c0 7.677 6.568 13.924 14.64 13.924z" fill="#1F3D56"/><path d="M21.43 28.95c4.968 0 9.01-3.844 9.01-8.568 0-4.725-4.043-8.57-9.01-8.57-4.968 0-9.01 3.845-9.01 8.57 0 4.724 4.042 8.569 9.01 8.569zm0-14.995c3.726 0 6.757 2.882 6.757 6.427 0 3.544-3.03 6.426-6.757 6.426s-6.758-2.882-6.758-6.426c0-3.545 3.031-6.427 6.758-6.427z" fill="#1F3D56"/><path d="M6.42 14.047L0 7.94l5.631-1.07L2.614 4a1.033 1.033 0 010-1.515 1.166 1.166 0 011.592 0l3.018 2.87L8.35 0l6.42 6.104-1.127 5.356 6.34 6.03a3.49 3.49 0 011.448-.322c1.862 0 3.378 1.442 3.378 3.213 0 1.772-1.516 3.214-3.378 3.214-1.863 0-3.379-1.442-3.379-3.213 0-.495.127-.958.34-1.377l-6.34-6.03-5.633 1.072zm14.25 7.114zm1.584-1.498zm0 1.437zm-.063.061z" fill="#1F3D56"/></svg>
